src/assets/fox.svg

<svg width="512" height="512" fill="none" xmlns="http://www.w3.org/2000/svg"><g clip-path="url(#a)"><path d="m.26 198.818 5.58 34.068c7.69 46.951 40.116 86.099 84.813 102.399l43.404 15.828c13.222 4.822 26.683-6.535 24.157-20.38l-8.422-46.162a73.781 73.781 0 0 0-49.416-56.807 160.589 160.589 0 0 1-60.272-36.125l-9.381-8.925C18.098 170.704-2.555 181.623.26 198.818Z" fill="#EE9A38"/><path d="m40.103 191.639-9.381-8.925C18.098 170.704-2.556 181.623.26 198.818l5.58 34.068a131.76 131.76 0 0 0 3.662 15.97c20.987-3.961 42.174-14.014 57.322-36.693a160.593 160.593 0 0 1-26.722-20.524Z" fill="#3DB2FF"/><path opacity=".05" d="m158.212 330.732-7.523-41.235c-24.926 5.841-44.96 24.347-52.95 48.371l36.316 13.244c13.222 4.823 26.684-6.535 24.157-20.38Z" fill="#000"/><path d="M310.397 374.332h-41.741v48.827h41.741v-48.827Z" fill="#F4B759"/><path d="M313.684 423.163H268.66v20.115c0 6.072 4.922 10.994 10.994 10.994h48.336a8.402 8.402 0 0 0 8.402-8.402c-.001-12.541-10.168-22.707-22.708-22.707Z" fill="#4A5058"/><path opacity=".15" d="M313.684 423.163h-3.283v-48.829H268.66v68.944c0 6.072 4.922 10.994 10.994 10.994h48.336a8.402 8.402 0 0 0 8.402-8.402c-.001-12.541-10.168-22.707-22.708-22.707Z" fill="#000"/><path d="M184.461 288.721c-40.623 0-73.553 32.931-73.553 73.553v60.89h41.741v-32.053h50.068v32.053h41.741v-32.053h20.569c41.079 0 74.378-33.301 74.378-74.378v-28.011H184.461v-.001Z" fill="#EE9A38"/><path opacity=".05" d="M190 288.721c25.993 42.878 77.122 76.181 120.232 87.061 17.731-13.594 29.174-34.981 29.174-59.05v-28.011H190Z" fill="#000"/><path d="m318.068 133.466-118.626 56.627-1.884-16.37a369.484 369.484 0 0 1 2.21-100.583c2.021-12.636 16.064-19.341 27.16-12.965a369.465 369.465 0 0 1 79.596 61.532l11.544 11.759Z" fill="#4A5058"/><path d="M287.89 143.132c-14.672-16.294-31.087-30.552-48.786-42.38-6.723-4.492-14.708-.68-15.442 7.371-1.935 21.2-1.17 42.929 2.273 64.582l.7 4.406 64.241-30.666-2.986-3.313Z" fill="#EDBCB9"/><path d="m376.83 133.466 118.626 56.627 1.884-16.37a369.564 369.564 0 0 0-2.209-100.583c-2.021-12.636-16.064-19.341-27.16-12.965a369.465 369.465 0 0 0-79.596 61.532l-11.545 11.759Z" fill="#4A5058"/><path d="M407.008 143.132c14.672-16.294 31.086-30.552 48.786-42.38 6.723-4.492 14.708-.68 15.442 7.371 1.935 21.2 1.171 42.929-2.272 64.582l-.702 4.406-64.241-30.666 2.987-3.313Z" fill="#EDBCB9"/><path d="M347.451 124.075c92.307 0 177.134 44.901 163.002 112.266C495.628 307 404.024 363.993 347.451 363.993c-56.573 0-148.178-56.993-163.002-127.652-14.133-67.365 70.693-112.266 163.002-112.266Z" fill="#EE9A38"/><path d="M347.451 298.437c-50.003 0-123.548-17.74-163.476-64.621.146.839.297 1.679.475 2.525C199.273 307 290.877 363.993 347.451 363.993S495.628 307 510.452 236.341c.178-.846.329-1.687.475-2.525-39.928 46.881-113.474 64.621-163.476 64.621Z" fill="#E8E8E8"/><path d="M276.406 257.384a8.238 8.238 0 0 1-8.24-8.24v-12.272a8.238 8.238 0 0 1 8.24-8.24 8.24 8.24 0 0 1 8.24 8.24v12.272a8.24 8.24 0 0 1-8.24 8.24ZM418.49 257.384a8.24 8.24 0 0 1-8.24-8.24v-12.272a8.24 8.24 0 0 1 8.24-8.24 8.238 8.238 0 0 1 8.24 8.24v12.272a8.24 8.24 0 0 1-8.24 8.24ZM375.975 311.446a8.238 8.238 0 0 0-8.24 8.24 6.03 6.03 0 0 1-6.023 6.023 6.03 6.03 0 0 1-6.023-6.023v-20.55h-16.481v20.55a6.03 6.03 0 0 1-6.024 6.023 6.03 6.03 0 0 1-6.022-6.023 8.238 8.238 0 0 0-8.24-8.24 8.238 8.238 0 0 0-8.24 8.24c0 12.409 10.095 22.504 22.503 22.504a22.407 22.407 0 0 0 14.265-5.11 22.399 22.399 0 0 0 14.263 5.11c12.409 0 22.504-10.095 22.504-22.504a8.24 8.24 0 0 0-8.242-8.24Z" fill="#4A5058"/><path d="m374.803 284.528-6.367 7.582c-10.952 13.043-31.022 13.043-41.973 0l-6.367-7.582c-3.281-3.907-.503-9.865 4.598-9.865h45.51c5.102 0 7.88 5.958 4.599 9.865ZM155.932 423.163h-45.024v20.115c0 6.072 4.922 10.994 10.994 10.994h48.336a8.402 8.402 0 0 0 8.402-8.402c-.001-12.541-10.168-22.707-22.708-22.707ZM247.741 423.163h-45.024v20.115c0 6.072 4.922 10.994 10.994 10.994h48.336a8.402 8.402 0 0 0 8.402-8.402c0-12.541-10.166-22.707-22.708-22.707Z" fill="#4A5058"/></g><defs><clipPath id="a"><path fill="#fff" d="M0 0h512.001v512.001H0z"/></clipPath></defs></svg>

<svg width="512" height="512" viewBox="0 0 512 512" fill="none" xmlns="http://www.w3.org/2000/svg">
<g clip-path="url(#clip0)">
<path d="M0.260663 198.818L5.84066 232.886C13.5307 279.837 45.9557 318.985 90.6527 335.285L134.057 351.113C147.279 355.935 160.74 344.578 158.214 330.733L149.792 284.571C144.949 258.023 125.997 236.238 100.376 227.764C77.8637 220.319 57.2807 207.982 40.1037 191.639L30.7227 182.714C18.0977 170.704 -2.55534 181.623 0.260663 198.818Z" fill="#EE9A38"/>
<path d="M40.1028 191.639L30.7218 182.714C18.0978 170.704 -2.55617 181.623 0.260829 198.818L5.84083 232.886C6.73183 238.324 7.96783 243.651 9.50283 248.856C30.4898 244.895 51.6768 234.842 66.8248 212.163C57.2538 206.291 48.2878 199.426 40.1028 191.639Z" fill="#3DB2FF"/>
<path opacity="0.05" d="M158.212 330.732L150.689 289.497C125.763 295.338 105.729 313.844 97.7383 337.868L134.055 351.112C147.277 355.935 160.739 344.577 158.212 330.732Z" fill="black"/>
<path d="M310.397 374.332H268.656V423.159H310.397V374.332Z" fill="#F4B759"/>
<path d="M313.684 423.163H268.66V443.278C268.66 449.35 273.582 454.272 279.654 454.272H327.99C332.63 454.272 336.392 450.51 336.392 445.87C336.391 433.329 326.224 423.163 313.684 423.163Z" fill="#4A5058"/>
<path opacity="0.15" d="M313.684 423.163H310.401V374.334H268.66V443.278C268.66 449.35 273.582 454.272 279.654 454.272H327.99C332.63 454.272 336.392 450.51 336.392 445.87C336.391 433.329 326.224 423.163 313.684 423.163Z" fill="black"/>
<path d="M184.461 288.721C143.838 288.721 110.908 321.652 110.908 362.274V423.164H152.649V391.111H202.717V423.164H244.458V391.111H265.027C306.106 391.111 339.405 357.81 339.405 316.733V288.722H184.461V288.721Z" fill="#EE9A38"/>
<path opacity="0.05" d="M190 288.721C215.993 331.599 267.122 364.902 310.232 375.782C327.963 362.188 339.406 340.801 339.406 316.732V288.721H190Z" fill="black"/>
<path d="M318.068 133.466L199.442 190.093L197.558 173.723C193.705 140.252 194.449 106.41 199.768 73.14C201.789 60.504 215.832 53.799 226.928 60.175C256.142 76.961 282.922 97.663 306.524 121.707L318.068 133.466Z" fill="#4A5058"/>
<path d="M287.89 143.132C273.218 126.838 256.803 112.58 239.104 100.752C232.381 96.26 224.396 100.072 223.662 108.123C221.727 129.323 222.492 151.052 225.935 172.705L226.635 177.111L290.876 146.445L287.89 143.132Z" fill="#EDBCB9"/>
<path d="M376.83 133.466L495.456 190.093L497.34 173.723C501.192 140.252 500.449 106.41 495.131 73.14C493.11 60.504 479.067 53.799 467.971 60.175C438.757 76.961 411.977 97.663 388.375 121.707L376.83 133.466Z" fill="#4A5058"/>
<path d="M407.008 143.132C421.68 126.838 438.094 112.58 455.794 100.752C462.517 96.26 470.502 100.072 471.236 108.123C473.171 129.323 472.407 151.052 468.964 172.705L468.262 177.111L404.021 146.445L407.008 143.132Z" fill="#EDBCB9"/>
<path d="M347.451 124.075C439.758 124.075 524.585 168.976 510.453 236.341C495.628 307 404.024 363.993 347.451 363.993C290.878 363.993 199.273 307 184.449 236.341C170.316 168.976 255.142 124.075 347.451 124.075Z" fill="#EE9A38"/>
<path d="M347.451 298.437C297.448 298.437 223.903 280.697 183.975 233.816C184.121 234.655 184.272 235.495 184.45 236.341C199.273 307 290.877 363.993 347.451 363.993C404.025 363.993 495.628 307 510.452 236.341C510.63 235.495 510.781 234.654 510.927 233.816C470.999 280.697 397.453 298.437 347.451 298.437Z" fill="#E8E8E8"/>
<path d="M276.406 257.384C271.854 257.384 268.166 253.696 268.166 249.144V236.872C268.166 232.32 271.854 228.632 276.406 228.632C280.957 228.632 284.646 232.32 284.646 236.872V249.144C284.646 253.694 280.958 257.384 276.406 257.384Z" fill="#4A5058"/>
<path d="M418.49 257.384C413.939 257.384 410.25 253.696 410.25 249.144V236.872C410.25 232.32 413.939 228.632 418.49 228.632C423.042 228.632 426.73 232.32 426.73 236.872V249.144C426.73 253.694 423.041 257.384 418.49 257.384Z" fill="#4A5058"/>
<path d="M375.975 311.446C371.423 311.446 367.735 315.134 367.735 319.686C367.735 323.007 365.033 325.709 361.712 325.709C358.391 325.709 355.689 323.007 355.689 319.686V299.136H339.208V319.686C339.208 323.007 336.506 325.709 333.184 325.709C329.864 325.709 327.162 323.007 327.162 319.686C327.162 315.134 323.474 311.446 318.922 311.446C314.37 311.446 310.682 315.134 310.682 319.686C310.682 332.095 320.777 342.19 333.185 342.19C338.594 342.19 343.563 340.272 347.45 337.08C351.335 340.272 356.305 342.19 361.713 342.19C374.122 342.19 384.217 332.095 384.217 319.686C384.216 315.134 380.527 311.446 375.975 311.446Z" fill="#4A5058"/>
<path d="M374.803 284.528L368.436 292.11C357.484 305.153 337.414 305.153 326.463 292.11L320.096 284.528C316.815 280.621 319.593 274.663 324.694 274.663H370.204C375.306 274.663 378.084 280.621 374.803 284.528Z" fill="#4A5058"/>
<path d="M155.932 423.163H110.908V443.278C110.908 449.35 115.83 454.272 121.902 454.272H170.238C174.878 454.272 178.64 450.51 178.64 445.87C178.639 433.329 168.472 423.163 155.932 423.163Z" fill="#4A5058"/>
<path d="M247.741 423.163H202.717V443.278C202.717 449.35 207.639 454.272 213.711 454.272H262.047C266.687 454.272 270.449 450.51 270.449 445.87C270.449 433.329 260.283 423.163 247.741 423.163Z" fill="#4A5058"/>
</g>
<defs>
<clipPath id="clip0">
<rect width="512.001" height="512.001" fill="white"/>
</clipPath>
</defs>
</svg>
